X:172
T:Reel 172
M:4/4
K:Gmaj
L:1/8
 (3efg dB BAA2|AABd geed| (3Bcd ef gfed||efde dgeg:||2A2ge fgaf|g2ba g2ed|egdg egdB|g2gf gbag|edef gdBd|g2bg f2af|egef gabc'|d'bc'a bgaf|gedB BAAf|
